epam-assets/icon-sources/18/internal-logo/startup_dashboard.svg

<svg width="18" height="18" viewBox="0 0 18 18" fill="none" xmlns="http://www.w3.org/2000/svg">
<g id="18/internal-logo/startup_dashboard">
<path id="icon" fill-rule="evenodd" clip-rule="evenodd" d="M9 5.14462C7.75459 5.14462 6.64568 5.65979 5.8268 6.46694C5.70733 6.58714 5.60495 6.72452 5.50264 6.84472L4.30838 6.15778C4.47901 5.93454 4.66667 5.7113 4.87142 5.50524C5.77558 4.59506 6.98687 3.99403 8.31756 3.83948V2.5H9.66535V3.83948C11.0131 3.99403 12.2073 4.59506 13.1286 5.50524C13.3162 5.7113 13.504 5.93454 13.6745 6.15778L12.4974 6.84472C12.395 6.70734 12.2927 6.58714 12.1732 6.46694C11.3543 5.65979 10.2283 5.14462 9 5.14462ZM4.30838 13.1643L3.16535 13.834L2.5 12.6662L3.64304 11.9965C3.33597 11.2752 3.16535 10.4853 3.16535 9.66107C3.16535 8.83674 3.33597 8.04677 3.64304 7.32554L4.8202 8.01242C4.63254 8.52765 4.51313 9.07715 4.51313 9.66107C4.51313 10.9146 5.02495 12.0309 5.8268 12.8551C6.49214 13.5249 7.36218 13.9714 8.31756 14.1259V15.4998C6.98687 15.3452 5.77558 14.727 4.87142 13.8168C4.66667 13.6108 4.47901 13.3875 4.30838 13.1643ZM14.357 11.9965L15.5 12.6662L14.8176 13.834L13.6745 13.1643C13.504 13.3875 13.3162 13.6108 13.1286 13.8168C12.2073 14.727 11.0131 15.3452 9.66535 15.4998V14.1259C10.6378 13.9714 11.5079 13.5249 12.1732 12.8551C12.975 12.0309 13.4869 10.9146 13.4869 9.66107C13.4869 9.07715 13.3675 8.52765 13.1798 8.01242L14.357 7.32554C14.664 8.04677 14.8347 8.83674 14.8347 9.66107C14.8347 10.4853 14.664 11.2752 14.357 11.9965ZM7.29399 7.96091C7.77168 7.48009 8.38581 7.25685 9 7.25685C9.61419 7.25685 10.2283 7.48009 10.689 7.96091C11.1667 8.42461 11.3884 9.04281 11.3884 9.66107C11.3884 10.2793 11.1667 10.8975 10.689 11.3783C10.2283 11.842 9.61419 12.0824 9 12.0824C8.38581 12.0824 7.77168 11.842 7.29399 11.3783C6.83333 10.8975 6.59446 10.2793 6.59446 9.66107C6.59446 9.04281 6.83333 8.42461 7.29399 7.96091Z" fill="#6C6F80"/>
</g>
</svg>

<svg xmlns="http://www.w3.org/2000/svg" width="18" height="18" fill="none" viewBox="0 0 18 18">
  <path fill="#6C6F80" fill-rule="evenodd" d="M9 5.145c-1.245 0-2.354.515-3.173 1.322-.12.12-.222.258-.324.378l-1.195-.687a5.801 5.801 0 0 1 4.01-2.318V2.5h1.347v1.34a5.848 5.848 0 0 1 3.464 1.665 10 10 0 0 1 .546.653l-1.178.687a3.423 3.423 0 0 0-.324-.378A4.533 4.533 0 0 0 9 5.145Zm-4.692 8.02-1.143.669-.665-1.168 1.143-.67a5.952 5.952 0 0 1 0-4.67l1.177.686a4.793 4.793 0 0 0-.307 1.65 4.56 4.56 0 0 0 1.314 3.193 4.522 4.522 0 0 0 2.49 1.27V15.5a5.822 5.822 0 0 1-3.446-1.683 6.686 6.686 0 0 1-.563-.653Zm10.049-1.168 1.143.67-.682 1.167-1.143-.67c-.171.223-.359.447-.546.653-.922.91-2.116 1.528-3.464 1.683v-1.374a4.514 4.514 0 0 0 2.508-1.27 4.562 4.562 0 0 0 1.314-3.195c0-.584-.12-1.133-.307-1.649l1.177-.686a5.953 5.953 0 0 1 0 4.67ZM7.294 7.96A2.379 2.379 0 0 1 9 7.257c.614 0 1.228.223 1.689.704.478.464.7 1.082.7 1.7a2.41 2.41 0 0 1-.7 1.717A2.382 2.382 0 0 1 9 12.082a2.45 2.45 0 0 1-1.706-.704c-.46-.48-.7-1.099-.7-1.717 0-.618.24-1.236.7-1.7Z" clip-rule="evenodd"/>
</svg>
